packages/symbols/svgs/outline/moon-outline.svg

<svg width="24" height="24" viewBox="0 0 24 24" fill="none" xmlns="http://www.w3.org/2000/svg">
<g clip-path="url(#clip0_1150_5535)">
<path fill-rule="evenodd" clip-rule="evenodd" d="M9.14435 2.7322C9.39317 3.00955 9.46716 3.40224 9.33633 3.75112C9.09442 4.3962 9 5.16387 9 5.99999C9 10.9477 13.0523 15 18 15C18.8361 15 19.6038 14.9056 20.2489 14.6637C20.5978 14.5328 20.9904 14.6068 21.2678 14.8556C21.5451 15.1045 21.6611 15.4868 21.5688 15.8478C20.3559 20.589 16.0583 24 11 24C4.94772 24 0 19.0523 0 13C0 7.9417 3.411 3.64405 8.15217 2.43119C8.51315 2.33885 8.89553 2.45486 9.14435 2.7322ZM7.047 4.94873C4.04111 6.38163 2 9.45685 2 13C2 17.9477 6.05228 22 11 22C14.5431 22 17.6184 19.9589 19.0513 16.953C18.6965 16.9866 18.3439 17 18 17C11.9477 17 7 12.0523 7 5.99999C7 5.65608 7.01344 5.30345 7.047 4.94873Z" fill="black"/>
<path fill-rule="evenodd" clip-rule="evenodd" d="M16 1C16 0.447715 15.5523 0 15 0C14.4477 0 14 0.447715 14 1V2H13C12.4477 2 12 2.44772 12 3C12 3.55228 12.4477 4 13 4H14V5C14 5.55228 14.4477 6 15 6C15.5523 6 16 5.55228 16 5V4H17C17.5523 4 18 3.55228 18 3C18 2.44772 17.5523 2 17 2H16V1ZM21 6C21.5523 6 22 6.44772 22 7V8H23C23.5523 8 24 8.44771 24 9C24 9.55229 23.5523 10 23 10H22V11C22 11.5523 21.5523 12 21 12C20.4477 12 20 11.5523 20 11V10H19C18.4477 10 18 9.55229 18 9C18 8.44771 18.4477 8 19 8H20V7C20 6.44772 20.4477 6 21 6Z" fill="black"/>
</g>
<defs>
<clipPath id="clip0_1150_5535">
<rect width="24" height="24" fill="white"/>
</clipPath>
</defs>
</svg>

<svg width="24" height="24" viewBox="0 0 24 24" xmlns="http://www.w3.org/2000/svg"><g clip-path="url(#a)" fill-rule="evenodd" clip-rule="evenodd"><path d="M9.144 2.732a1 1 0 0 1 .192 1.02C9.094 4.395 9 5.163 9 6c0 4.948 4.052 9 9 9 .836 0 1.604-.094 2.249-.336a1 1 0 0 1 1.32 1.184C20.356 20.589 16.059 24 11 24 4.948 24 0 19.052 0 13 0 7.942 3.411 3.644 8.152 2.431a1 1 0 0 1 .992.301ZM7.047 4.95A8.892 8.892 0 0 0 2 13c0 4.948 4.052 9 9 9a8.893 8.893 0 0 0 8.051-5.047c-.354.034-.707.047-1.051.047-6.052 0-11-4.948-11-11 0-.344.013-.697.047-1.051ZM16 1a1 1 0 1 0-2 0v1h-1a1 1 0 1 0 0 2h1v1a1 1 0 1 0 2 0V4h1a1 1 0 1 0 0-2h-1V1Zm5 5a1 1 0 0 1 1 1v1h1a1 1 0 1 1 0 2h-1v1a1 1 0 1 1-2 0v-1h-1a1 1 0 1 1 0-2h1V7a1 1 0 0 1 1-1Z"/></g><defs><clipPath id="a"><path fill="#fff" d="M0 0h24v24H0z"/></clipPath></defs></svg>
